X:1
T:Landes, LMD
T:Landes, LMD
T:Daniel Patterson Airhart  (1849-1927)
T:Public Domain Courtesy of the Cyber Hymnal™
C:Daniel Patterson Airhart  (1849-1927)
Z:Public Domain
Z:Courtesy of the Cyber Hymnal™
%%score ( 1 2 ) ( 3 4 )
L:1/8
Q:1/4=100
M:4/4
K:E
V:1 treble 
V:2 treble 
V:3 bass 
V:4 bass 
V:1
 E2 | [EG]3 [EG] [DF]>E [DF]>[EG] | E6 [B,E]2 | [B,F]3 [B,F] [EG]>[EF] [EG]>[E^A] | [DB]6 [DA]2 | %5
 [EG]3 [EG] [EG]E[DF][=DG] | [CA]6 [Ec]2 | [EB]3 [EA] [EG]E [DF]>[DG] | E6 [GB]2 | %9
 [Ae]3 [Ad] [Ac][AB][Ac][Ae] | [GB]6 [GB]2 | [Ae]3 [Ad] [Ac][AB][Ac][Ae] | [GB]6 [DA]2 | %13
 [EG]3 [EG] [EG]E[DF][=DG] | [CA]6 [Ec]2 | [EB]3 [EA] [EG]E [DF]>[DG] | E6 |] %17
V:2
 E2 | x11/2 E/ x2 | E6 x2 | x8 | x8 | x5 E x2 | x8 | x5 E x2 | E6 x2 | x8 | x8 | x8 | x8 | %13
 x5 E x2 | x8 | x5 E x2 | E6 |] %17
V:3
 [E,G,]2 | [E,B,]3 [E,B,] [B,,A,]>[B,,G,] [B,,A,]>[B,,B,] | [E,G,]6 [E,G,]2 | %3
 [D,F,]3 [D,F,] [C,F,]>[C,F,] F,>F, | [B,,F,]6 [B,,B,]2 | %5
 [E,B,]3 [E,B,] [E,B,][=D,G,][C,A,][B,,E,] | [A,,E,]6 [A,,A,]2 | %7
 [B,,G,]3 [B,,F,] [B,,E,][B,,G,] [B,,A,]>[B,,B,] | [E,G,]6 [E,B,]2 | %9
 [A,,C]3 [A,,D] [A,,E][A,,E][A,,E][C,E] | C6 [E,E]2 | [A,,C]3 [A,,D] [A,,E][A,,E][A,,E][C,E] | %12
 E6 [B,,B,]2 | [E,B,]3 [E,B,] [E,B,][=D,G,][C,A,][B,,E,] | [A,,E,]6 [A,,A,]2 | %15
 [B,,G,]3 [B,,F,] [B,,E,][B,,G,] [B,,A,]>[B,,B,] | [E,G,]6 |] %17
V:4
 x2 | x8 | x8 | x6 F,>F, | x8 | x8 | x8 | x8 | x8 | x8 | E,2 G,2 B,2 x2 | x8 | E,2 G,2 B,2 x2 | %13
 x8 | x8 | x8 | x6 |] %17

